X:3
T: Skirmish harmony
K:D
M:C|
L:1/8
fg|a4 gfeg|f4 d3B|A2d2A2f2|gfed A2 fg|a4 gfeg|
f4 d3B|A2d2 cdec|d2c2d2:|]|:FE|D2F2A,2E2|D2F2A,2E2|
D2F2A,2E2|GFED A,2A,2|D2F2A,2E2|D2F2A,2E2|D2F2 BAGF|A2G2F2:|]

%%scale .5
%%text 04/13/14 

#include "RightHeader.h"
%%footer 4/7/14 For use only by Roaring Jelly members 
%%text Set 120 NEFFA 2014 Conflagration and Rebirth Set, continued
$SmallLMargin
$SmallRMargin
%%scale .8
